!!! OTL: Berkowitz575
!!! Chapter: 1
!!! Section: V
!!! Page: 155
!!! Mode: 
!!! Encoder: CD
**kern
*staff1
=1-
*clefC3
*k[]
*C:
*M3/8
8d\L
8a\
8a\J
=2
*M5/8
4b-\
4e-\
8r
=3
*M3/8
8e\L
8b\
8b\J
=4
*M5/8
4cc\
4f\
8r
=5
*M3/8
4b-\
8a-\
=6
8c#\L
8f#\
8e\J
=7
8b\L
8a\
8b\J
=8
4.a#\
=9
!!linebreak:original
8g#\L
8d#\
8d#\J
=10
*M4/8
4c#\
4f#\
=11
*M3/8
8B/
8c#\
8B/
=12
4e\
8d\
=13
8g\
8c\
8f\
=14
8e-\
8A-/
8d-\
=15
*M5/8
4c\
4G/
8A/
=16
*M3/8
8e\
8r
8r
==
*-
